X:1
T:Title
%%score 1 { 2 | 3 }
L:1/8
Q:1/4=115
M:4/4
K:Bb
V:1 treble nm="Grand Piano, Staff 1"
V:2 bass nm="Choir Pad, Brooklyn, 12.12.88"
V:3 bass 
V:1
 F2 B2- B/ z/ B, D2 | F2 B6 | F2 [DB]2- [DB][DF] [DB]2 | [Fc]2 [Bd]6 | %4
w: By~John~Zundel,~1852 * * * *||||
 [Bd]2 [Ac]2- [Ac][FA] [GB]2 | [=EG]2 [FA]2- [FA][GB] [Ac]2 | [GB]2 [FA]2- [FA][FA] [GB]2 | %7
w: |||
 [=EG]2 F6 | F2 B2 B2 B2- | B[Ac] [Bd]2 [Bd]2 [Bd]2- | [Bd][Be] [Bf]2 [Bd]2 B2 | %11
w: ||||
 [Bd]2 [Ac]2 [ce][Bd] [Ac]2 | [Fc]2 [Ff]2- [Ff][Fd] [GB]2 | [ce]2 [Bd]4 [Ac]2- | [Ac]2 [FB]6- | %15
w: ||||
 [FB]2 z2 z4 |] %16
w: |
V:2
 F,2 B,2- B,/ z/ B,, D,2 | F,2 B,6 | F,2 B,2- B,F, B,2 | C2 D6 | F2 F2- FC C2 | C2 C6 | %6
 D2 C2- CC C2 | B,2 A,6 | F,2 B,2 B,2 B,2- | B,[K:treble]C D2 D2 D2- | DC D2 F2 D2 | F2 F2 F2 F2 | %12
 A,2 B,2- B,B, B,2 | G2 F4 E2- | E2 D6- | D2 z2 z4 |] %16
V:3
 z8 | z8 | z2 D,2- D,D, D,2 | F,2 B,6 | B,,2 C,2- C,C, C,2 | C,2 F,6 | B,,2 C,2- C,C, C,2 | %7
 C,2 F,6 | z8 | z A, B,2 B,2 B,2- | B,B, B,2 B,2 B,2 | B,2 F,2 F,2 F,2 | E,2 D,2- D,D, G,2 | %13
 E,2 F,4 F,2- | F,2 B,,6- | B,,2 z2 z4 |] %16

